X:20
T:Talyllyn
M:C
L:1/4
Q:100
C:Trad.
R:Hymn
K:G
D | G F E G | F E D A | B G A F | G3 :|| G | B F G B | B2 A D | F G F E|
| D3 A | B c d G/2A/2 | B2 A A | B G A F | G3 ||
